rospo-newyear-dark/symbolic/status/notification-disabled-symbolic.svg

<svg height="16" width="16" xmlns="http://www.w3.org/2000/svg"><path d="m8 1c-.55 0-1 .45-1 1 0 .03-.0002.0696.0098.0996-.4968.0998-.9592.2854-1.3907.5195l7.3809 7.3809v-1-2c0-2.43-1.72-4.4404-4.0098-4.9004.01-.03.0098-.0696.0098-.0996 0-.55-.45-1-1-1zm-3.9922 3.0078c-.6265.8341-1.0078 1.8639-1.0078 2.9922v4.5l-2 2v .5h2 10 1zm2.2617 10.9922c.36.62 1.0205 1 1.7305 1s1.3705-.38 1.7305-1z" fill="#d3dae3"/><path d="m2.5 1.5 12.5 12.5-1.5 1.5-12.5-12.5z" fill="#d3dae3"/></svg>

<svg xmlns="http://www.w3.org/2000/svg" width="16" height="16" version="1.1">
 <path style="fill:#d3dae3" d="M 8 1 C 7.45 1 7 1.45 7 2 C 7 2.03 6.9998 2.0696 7.0098 2.0996 C 6.513 2.1994 6.0506 2.385 5.6191 2.6191 L 13 10 L 13 9 L 13 7 C 13 4.57 11.28 2.5596 8.9902 2.0996 C 9.0002 2.0696 9 2.03 9 2 C 9 1.45 8.55 1 8 1 z M 4.0078 4.0078 C 3.3813 4.8419 3 5.8717 3 7 L 3 11.5 L 1 13.5 L 1 14 L 3 14 L 13 14 L 14 14 L 4.0078 4.0078 z M 6.2695 15 C 6.6295 15.62 7.29 16 8 16 C 8.71 16 9.3705 15.62 9.7305 15 L 6.2695 15 z"/>
 <path style="fill:#d3dae3" d="M 2.5,1.5 15,14 13.5,15.5 1,3 Z"/>
</svg>
